src/assets/icons/outlined/telegram.svg

<svg width="24" height="24" viewBox="0 0 24 24" fill="none" xmlns="http://www.w3.org/2000/svg">
<path d="M22.2647 2.42778C21.98 2.19091 21.6364 2.03567 21.2704 1.97858C20.9045 1.92149 20.5299 1.96469 20.1866 2.10357L2.26566 9.33892C1.88241 9.4966 1.55618 9.76711 1.33026 10.1145C1.10434 10.462 0.989427 10.8699 1.00076 11.2841C1.0121 11.6984 1.14916 12.0994 1.39374 12.434C1.63832 12.7685 1.97886 13.0208 2.37016 13.1573L5.99516 14.418L8.01566 21.0997C8.04312 21.1889 8.08297 21.2739 8.13404 21.352C8.14179 21.364 8.15272 21.373 8.16096 21.3846C8.21996 21.467 8.29127 21.5397 8.37239 21.6004C8.39546 21.618 8.41755 21.6345 8.44221 21.6501C8.53714 21.7131 8.64228 21.7591 8.75294 21.7862L8.76478 21.7872L8.77149 21.7901C8.83802 21.8036 8.90574 21.8105 8.97364 21.8106C8.98017 21.8106 8.98597 21.8074 8.99244 21.8073C9.0949 21.8055 9.19647 21.7879 9.29353 21.755C9.31611 21.7473 9.33546 21.7345 9.35737 21.7252C9.42975 21.6952 9.49832 21.6567 9.56166 21.6106C9.61238 21.5679 9.66312 21.5251 9.71388 21.4824L12.416 18.4991L16.4463 21.6211C16.8011 21.8974 17.2379 22.0475 17.6875 22.0479C18.1587 22.0473 18.6154 21.8847 18.9809 21.5874C19.3465 21.2901 19.5987 20.8762 19.6954 20.4151L22.958 4.39849C23.032 4.03801 23.0065 3.66421 22.8844 3.31708C22.7623 2.96995 22.5481 2.66255 22.2647 2.42778ZM9.37016 14.7364C9.2315 14.8745 9.13672 15.0505 9.0977 15.2422L8.78819 16.7462L8.00413 14.1532L12.0694 12.0362L9.37016 14.7364ZM17.6719 20.0401L12.9092 16.3506C12.71 16.1966 12.46 16.1234 12.2092 16.1455C11.9583 16.1675 11.725 16.2833 11.5557 16.4697L10.6903 17.4249L10.9961 15.9385L18.0791 8.85549C18.2482 8.68665 18.3512 8.46285 18.3695 8.22461C18.3878 7.98638 18.3201 7.74947 18.1788 7.55681C18.0375 7.36414 17.8319 7.22845 17.5992 7.17433C17.3664 7.1202 17.122 7.15121 16.9102 7.26174L6.74491 12.5544L3.02055 11.1915L20.999 3.99905L17.6719 20.0401Z" />
</svg>

<svg width="24" height="24" viewBox="0 0 24 24" fill="none" xmlns="http://www.w3.org/2000/svg"><path d="M22.265 2.428a2.048 2.048 0 00-2.078-.324L2.266 9.339a2.043 2.043 0 00.104 3.818l3.625 1.261 2.02 6.682c.028.089.068.174.119.252.008.012.019.021.027.033a.988.988 0 00.281.265c.095.063.2.11.31.136l.013.001.006.003c.067.014.135.02.203.02l.018-.003a.992.992 0 00.302-.052c.022-.008.041-.02.063-.03a.994.994 0 00.205-.114l.152-.129 2.702-2.983 4.03 3.122c.355.276.792.427 1.241.427a2.054 2.054 0 002.008-1.633l3.263-16.017a2.03 2.03 0 00-.693-1.97zM9.37 14.736a.994.994 0 00-.272.506l-.31 1.504-.784-2.593 4.065-2.117-2.699 2.7zm8.302 5.304l-4.763-3.69a1 1 0 00-1.353.12l-.866.955.306-1.487 7.083-7.083a1 1 0 00-1.169-1.593L6.745 12.554 3.02 11.191 20.999 4 17.672 20.04z"/></svg>
